Yaru++/actions/symbolic/view-grid-symbolic.svg

<svg height="16" width="16" xmlns="http://www.w3.org/2000/svg"><path d="m2 2v5h5v-5zm7 0v5h5v-5zm-6 1h3v3h-3zm7 0h3v3h-3zm-8 6v5h5v-5zm7 0v5h5v-5zm-6 1h3v3h-3zm7 0h3v3h-3z" fill="#808080"/></svg>

<svg height="16" width="16" xmlns="http://www.w3.org/2000/svg">
    <path d="M2 2v5h5V2zm7 0v5h5V2zM3 3h3v3H3zm7 0h3v3h-3zM2 9v5h5V9zm7 0v5h5V9zm-6 1h3v3H3zm7 0h3v3h-3z" fill="gray" font-family="sans-serif" font-weight="400" overflow="visible" style="line-height:normal;font-variant-ligatures:normal;font-variant-position:normal;font-variant-caps:normal;font-variant-numeric:normal;font-variant-alternates:normal;font-feature-settings:normal;text-indent:0;text-align:start;text-decoration-line:none;text-decoration-style:solid;text-decoration-color:#000;text-transform:none;text-orientation:mixed;shape-padding:0;isolation:auto;mix-blend-mode:normal" white-space="normal" color="#000"/>
</svg>
